X: 32615
T: Plasterer's Dream, The
R: jig
M: 6/8
K: Gmajor
|:D|G3 A3|BAG Bcd|efg dBG|BcB AGE|
G3 AGA|BAG Bcd|gfe dcB|AFA G2:|
|:g|gfe dcd|edA Bcd|efg dBG|B3 AGE|
G3 A3|BAG Bcd|gfe dcB|AFA G2:|
|:A|BdG BdG|B2d dBG|FAD FAD|FAB cBA|
G3 AGA|BAG Bcd|gfe dcB|AFA G2:|

